src/assets/filled/Headphone.svg

<svg width="24" height="24" viewBox="0 0 24 24"  xmlns="http://www.w3.org/2000/svg">
<path d="M2.75006 18.6498C2.34006 18.6498 2.00006 18.3098 2.00006 17.8998V12.1998C1.95006 9.4898 2.96006 6.9298 4.84006 5.0098C6.72006 3.0998 9.24006 2.0498 11.9501 2.0498C17.4901 2.0498 22.0001 6.5598 22.0001 12.0998V17.7998C22.0001 18.2098 21.6601 18.5498 21.2501 18.5498C20.8401 18.5498 20.5001 18.2098 20.5001 17.7998V12.0998C20.5001 7.3898 16.6701 3.5498 11.9501 3.5498C9.64006 3.5498 7.50006 4.43981 5.91006 6.0598C4.31006 7.68981 3.46006 9.85981 3.50006 12.1798V17.8898C3.50006 18.3098 3.17006 18.6498 2.75006 18.6498Z" />
<path d="M5.94 12.4502H5.81C3.71 12.4502 2 14.1602 2 16.2602V18.1402C2 20.2402 3.71 21.9502 5.81 21.9502H5.94C8.04 21.9502 9.75 20.2402 9.75 18.1402V16.2602C9.75 14.1602 8.04 12.4502 5.94 12.4502Z" />
<path d="M18.19 12.4502H18.06C15.96 12.4502 14.25 14.1602 14.25 16.2602V18.1402C14.25 20.2402 15.96 21.9502 18.06 21.9502H18.19C20.29 21.9502 22 20.2402 22 18.1402V16.2602C22 14.1602 20.29 12.4502 18.19 12.4502Z" />
</svg>

<?xml version="1.0" encoding="UTF-8"?>
<svg width="24" height="24" viewBox="0 0 24 24" xmlns="http://www.w3.org/2000/svg">
 <path d="m2.7501 18.65c-0.41 0-0.75-0.34-0.75-0.75v-5.7c-0.05-2.71 0.96-5.27 2.84-7.19 1.88-1.91 4.4-2.96 7.11-2.96 5.54 0 10.05 4.51 10.05 10.05v5.7c0 0.41-0.34 0.75-0.75 0.75s-0.75-0.34-0.75-0.75v-5.7c0-4.71-3.83-8.55-8.55-8.55-2.31 0-4.45 0.89001-6.04 2.51-1.6 1.63-2.45 3.8-2.41 6.12v5.71c0 0.42-0.33 0.76-0.75 0.76z"/>
 <path d="m5.94 12.45h-0.13c-2.1 0-3.81 1.71-3.81 3.81v1.88c0 2.1 1.71 3.81 3.81 3.81h0.13c2.1 0 3.81-1.71 3.81-3.81v-1.88c0-2.1-1.71-3.81-3.81-3.81z"/>
 <path d="m18.19 12.45h-0.13c-2.1 0-3.81 1.71-3.81 3.81v1.88c0 2.1 1.71 3.81 3.81 3.81h0.13c2.1 0 3.81-1.71 3.81-3.81v-1.88c0-2.1-1.71-3.81-3.81-3.81z"/>
</svg>
